rospo-icon-theme-classic-common/48x48/apps/charles-proxy.svg

<svg height="48" width="48" xmlns="http://www.w3.org/2000/svg"><path d="m17.033203 5.0048256c-1.41504.033333-2.581905.226118-3.703125.609375-.7002.2393471-1.455585.5909934-1.791016.8339844-.24622.178354-.449218.5858517-.449218.9003906 0 .1654011.07857.4388206.167968.5859376.03698.060866.258861.3250904.494141.5859374.23529.2608481.513751.5735835.619141.6953126 1.94676 2.2484468 2.524166 4.3657998 2.628906 6.9882808-.133765 1.356729-.665132 2.703905-1.738281 3.957031-2.25401 2.91925-2.996968 4.129963-3.7050784 6.033203-.27955.75137-.4331375 1.389386-.5234375 2.166016-.0443.37831-.043047 1.686589.00195 2.318359.1403501 1.97011.5164618 3.759068 1.1699218 5.554688.07278.19998.179881.497266.238281.660156.59268 1.65134 1.921658 3.900594 3.242188 5.490234.31727.38192 1.213744 1.30014 1.677734 1.71875.55645.50203 1.147005.81996 1.640625.88086v-.002c.11122.0136 2.899743.02158 6.195313.01758l5.990234-.0059.222656-.06641c.48227-.14551 1.104697-.534297 1.597657-.998047.12674-.11923.43579-.444416.6875-.722656 1.63404-1.8063 3.89858-4.463025 4.78125-6.671875.82422-2.06257 1.207215-3.465817 1.421875-5.216797.25272-2.06148.138239-3.45145-.400391-4.83789-.418612-.968809-1.510197-1.993439-1.529297-3.113282.0002-.44125.01149-.599147.05859-.773437.12569-.46493.551256-.890083.878906-1.283203.07971-.09565.466475-.500431.859375-.900391.93452-.95131 1.234903-1.340623 1.595703-2.064453.29103-.58384.502663-1.27715.601563-1.972656.0626-.437414.06195-1.268563-.002-1.712891-.3663259-2.546346-2.2173129-4.8337563-4.6542429-5.4510824-.68735-.174125-1.296918-.1832943-3.398438-.2089843-2.891692-.0375503-6.13898-.3820397-8.884765-2.1289063-1.73569-.92555-2.33842-1.2054922-3.16211-1.4726562-.99676-.323295-1.684608-.4195582-2.830078-.3925782zm15.246094 7.9960934c.735127.00069 1.089498.01154 1.255859.03906.871052.144105 1.606876.623813 2.054688 1.341797.409509.656587.516449 1.42632.300781 2.148438-.173264.580158-.363907.837494-1.224609 1.650391-.879963.83111-1.188698 1.174031-1.498047 1.660156-.05587.08787-.118312.160156-.138672.160156-.02033 0-.09474-.07229-.164063-.160156l-.279296-.353516c-.738736-.935258-1.294303-1.785543-1.46875-2.25-.07056-.187768-.08568-.290488-.105469-.654297-.05191-.953125.09305-3.317376.216797-3.535156.02549-.04495.105014-.04775 1.050781-.04687z" opacity=".2"/><path d="m17.033203 4.0039062c-1.41504.033333-2.581905.226118-3.703125.609375-.7002.2393471-1.455585.5909934-1.791016.8339844-.24622.178354-.449218.5858517-.449218.9003906 0 .1654011.078569.4388206.167968.5859376.036981.060866.258861.3250904.494141.5859374.23529.2608481.513751.5735835.619141.6953126 1.94676 2.2484472 2.524166 4.3658002 2.628906 6.9882812-.133765 1.356729-.665132 2.703905-1.738281 3.957031-2.25401 2.91925-2.996968 4.129963-3.7050784 6.033203-.27955.75137-.4331375 1.389386-.5234375 2.166016-.0443.37831-.0430468 1.686589.0019531 2.318359.1403501 1.97011.5164618 3.759068 1.1699218 5.554688.07278.19998.179881.497266.238281.660156.59268 1.65134 1.921658 3.900594 3.242188 5.490234.31727.38192 1.213744 1.30014 1.677734 1.71875.55645.50203 1.147005.81996 1.640625.88086v-.001953c.11122.0136 2.899743.021578 6.195313.017578l5.990234-.005859.222656-.066407c.48227-.14551 1.104697-.534297 1.597657-.998047.12674-.11923.43579-.444416.6875-.722656 1.63404-1.8063 3.89858-4.463025 4.78125-6.671875.82422-2.06257 1.207215-3.465817 1.421875-5.216797.25272-2.06148.138239-3.45145-.400391-4.83789-.418612-.968809-1.510197-1.993439-1.529297-3.113282.0002-.44125.011494-.599147.058594-.773437.12569-.46493.551256-.890083.878906-1.283203.07971-.09565.466475-.500431.859375-.900391.93452-.95131 1.234903-1.340623 1.595703-2.064453.29103-.58384.502663-1.27715.601563-1.972656.0626-.437414.061947-1.268563-.001953-1.712891-.36638-2.546435-2.217367-4.8338457-4.654297-5.4511718-.68735-.174125-1.296918-.1832943-3.398438-.2089843-2.891692-.0375503-6.13898-.3820397-8.884765-2.1289063-1.73569-.92555-2.33842-1.2054922-3.16211-1.4726562-.99676-.323295-1.684608-.4195582-2.830078-.3925782zm15.246094 7.9960938c.735127.00069 1.089498.011542 1.255859.039062.871052.144105 1.606876.623813 2.054688 1.341797.409509.656587.516449 1.42632.300781 2.148438-.173264.580158-.363907.837494-1.224609 1.650391-.879963.83111-1.188698 1.174031-1.498047 1.660156-.055874.08787-.118312.160156-.138672.160156-.020331 0-.094743-.072286-.164063-.160156l-.279296-.353516c-.738736-.935258-1.294303-1.785543-1.46875-2.25-.07056-.187768-.085679-.290488-.105469-.654297-.051912-.953125.093049-3.317376.216797-3.535156.025491-.04495.105014-.047754 1.050781-.046875z" fill="#e4e4e4"/><path d="m17.033203 4.0039062c-1.41504.033333-2.581905.226118-3.703125.609375-.7002.2393471-1.455585.5909934-1.791016.8339844-.246219.178354-.449218.5858517-.449218.9003906 0 .1404941.060951.3472395.132812.5.081527-.163486.193296-.3112136.316406-.4003906.335432-.242991 1.090816-.5946373 1.791016-.8339844 1.12122-.383257 2.288085-.576042 3.703125-.609375 1.14547-.02698 1.833318.0692832 2.830078.3925782.82369.267164 1.42642.5471062 3.16211 1.4726562 2.745785 1.7468666 5.993073 2.091356 8.884765 2.1289063 2.10152.02569 2.711088.0348593 3.398438.2089843 2.43693.6173261 4.287971 2.9048258 4.654297 5.4511718.013663.094934.013599.244551.021484.367188.029489-.450477.029474-1.012852-.021484-1.367188-.36638-2.546435-2.217367-4.8338456-4.654297-5.4511718-.68735-.174125-1.296918-.1832943-3.398438-.2089843-2.891692-.0375503-6.13898-.3820397-8.884765-2.1289063-1.73569-.92555-2.33842-1.2054922-3.16211-1.4726562-.99676-.323295-1.684608-.4195582-2.830078-.3925782zm18.904297 11.2753908c-.016226.083268-.022304.16773-.046875.25-.173264.580158-.363907.837494-1.224609 1.650391-.879963.83111-1.188698 1.174031-1.498047 1.660156-.055874.08787-.118312.160156-.138672.160156-.020331 0-.094743-.072286-.164063-.160156l-.279296-.353516c-.738736-.935258-1.294304-1.785543-1.46875-2.25-.070561-.187768-.085679-.290488-.105469-.654297-.000714-.013097.000639-.03716 0-.050781-.011356.407264-.01445.785467 0 1.050781.019789.363809.034908.466529.105469.654297.174446.464457.730014 1.314742 1.46875 2.25l.279296.353516c.069323.087866.143733.160156.164063.160156.02036 0 .082802-.072286.138672-.160156.309349-.486125.618084-.829047 1.498047-1.660156.860702-.812897 1.051345-1.070233 1.224609-1.650391.123048-.412001.130137-.836857.046875-1.25zm-20.984375.195312c-.175073 1.264384-.690078 2.516287-1.691406 3.685547-2.25401 2.91925-2.996968 4.129963-3.7050784 6.033203-.27955.75137-.4331375 1.389386-.5234375 2.166016-.0314658.26871-.0314291.960407-.0175781 1.591797.0053134-.214366.0052641-.486639.0175781-.591797.0903-.77663.2438875-1.414646.5234375-2.166016.7081104-1.90324 1.4510684-3.113953 3.7050784-6.033203 1.073149-1.253126 1.604516-2.600302 1.738281-3.957031-.009925-.248511-.027698-.488535-.046875-.728516zm21.060547 7.214844c-.029582.147227-.042803.309535-.042969.675781.0191 1.119843 1.110685 2.144473 1.529297 3.113282.315682.81257.468145 1.644279.503906 2.59375.070619-1.409124-.082456-2.508934-.503906-3.59375-.377826-.874417-1.295419-1.794736-1.486328-2.789063z" fill="#fff" opacity=".2"/><path d="m28.602996 37.810538c-1.974776-1.140137-8.284732-8.35884-8.284732-8.35884s9.406558 1.855233 11.381332 2.99537c1.974777 1.140135 2.543448 3.852223 2.027348 4.746136-.5161.893912-3.149173 1.757472-5.123948.617334z" opacity=".2"/><path d="m28.602996 36.810538c-1.974776-1.140137-8.284732-8.35884-8.284732-8.35884s9.406558 1.855233 11.381332 2.99537c1.974777 1.140135 2.543448 3.852223 2.027348 4.746136-.5161.893912-3.149173 1.757472-5.123948.617334z" fill="#4670c8"/><path d="m31.777695 31.853862c-2.202576.590178-11.768782-.05241-11.768782-.05241s7.963285-5.339596 10.165861-5.929774c2.202576-.590177 4.522425.925447 4.789577 1.922474.267153.99703-.984083 3.469523-3.186656 4.059703z" opacity=".2"/><path d="m31.777695 30.853862c-2.202576.590178-11.768782-.05241-11.768782-.05241s7.963285-5.339596 10.165861-5.929774c2.202576-.590177 4.522425.925447 4.789577 1.922474.267153.99703-.984083 3.469523-3.186656 4.059703z" fill="#4ab6e7"/><path d="m29.810539 25.397005c-1.140137 1.974777-8.35884 8.28473-8.35884 8.28473s1.85523-9.406556 2.995368-11.381332c1.140137-1.974775 3.852225-2.543446 4.746137-2.027346.893911.516098 1.757472 3.149171.617335 5.123948z" opacity=".2"/><path d="m29.810539 24.397005c-1.140137 1.974777-8.35884 8.28473-8.35884 8.28473s1.85523-9.406556 2.995368-11.381332c1.140137-1.974775 3.852225-2.543446 4.746137-2.027346.893911.516098 1.757472 3.149171.617335 5.123948z" fill="#4670c8"/><path d="m14.300404 29.552932c1.974776 1.140138 11.381332 2.995368 11.381332 2.995368s-6.309955-7.2187-8.284731-8.358838c-1.974776-1.140137-4.607848-.276578-5.123948.617335-.516101.893913.05257 3.605998 2.027347 4.746135z" opacity=".2"/><path d="m14.300404 28.552932c1.974776 1.140138 11.381332 2.995368 11.381332 2.995368s-6.309955-7.2187-8.284731-8.358838c-1.974776-1.140137-4.607848-.276578-5.123948.617335-.516101.893913.05257 3.605998 2.027347 4.746135z" fill="#4670c8"/><path d="m17.871687 23.825225c.590178 2.202576 5.929773 10.165864 5.929773 10.165864s.642583-9.566209.05241-11.768782c-.59018-2.202576-3.062673-3.453812-4.059701-3.186659-.99703.267155-2.512654 2.587001-1.922476 4.789577z" opacity=".2"/><path d="m15.825225 36.128313c2.202578-.590178 10.165864-5.929774 10.165864-5.929774s-9.566206-.642583-11.768782-.05241c-2.202577.59018-3.453812 3.062673-3.186658 4.059701.267153.997032 2.587001 2.512654 4.789576 1.922476z" opacity=".2"/><path d="m15.825225 35.128313c2.202578-.590178 10.165864-5.929774 10.165864-5.929774s-9.566206-.642583-11.768782-.05241c-2.202577.59018-3.453812 3.062673-3.186658 4.059701.267153.997032 2.587001 2.512654 4.789576 1.922476z" fill="#4ab6e7"/><path d="m22.146139 39.777694c-.59018-2.202578.05241-11.768784.05241-11.768784s5.339594 7.963287 5.929772 10.165863c.590177 2.202578-.925447 4.522425-1.922474 4.789577-.99703.267155-3.469523-.984082-4.059701-3.186656z" opacity=".2"/><path d="m22.146139 38.777694c-.59018-2.202578.05241-11.768784.05241-11.768784s5.339594 7.963287 5.929772 10.165863c.590177 2.202578-.925447 4.522425-1.922474 4.789577-.99703.267155-3.469523-.984082-4.059701-3.186656z" fill="#4ab6e7"/><path d="m21.552933 39.699598c1.140138-1.974777 2.995368-11.381333 2.995368-11.381333s-7.218702 6.309954-8.358839 8.284731c-1.140138 1.974774-.276578 4.607847.617335 5.123947.89391.516101 3.605999-.05258 4.746136-2.027345z" opacity=".2"/><path d="m21.552933 38.699598c1.140138-1.974777 2.995368-11.381333 2.995368-11.381333s-7.218702 6.309954-8.358839 8.284731c-1.140138 1.974774-.276578 4.607847.617335 5.123947.89391.516101 3.605999-.05258 4.746136-2.027345z" fill="#4670c8"/><path d="m17.871687 22.825225c.590178 2.202576 5.929773 10.165864 5.929773 10.165864s.642583-9.566209.05241-11.768782c-.59018-2.202576-3.062673-3.453812-4.059701-3.186659-.99703.267155-2.512654 2.587001-1.922476 4.789577z" fill="#4ab6e7"/><circle cx="35.419" cy="15.347" opacity=".2" r="4" transform="matrix(.86602541 .5 -.5 .86602541 0 0)"/><circle cx="34.919" cy="14.481" fill="#ffb22e" r="4" transform="matrix(.86602541 .5 -.5 .86602541 0 0)"/><path d="m22.810547 26.003906a4 4 0 0 0 -3.275391 1.996094 4 4 0 0 0 -.5 2.505859 4 4 0 0 1  .5-1.505859 4 4 0 0 1 5.464844-1.464844 4 4 0 0 1 1.964844 2.958985 4 4 0 0 0 -1.964844-3.958985 4 4 0 0 0 -2.189453-.53125z" fill="#fff" opacity=".2"/></svg>

<svg xmlns="http://www.w3.org/2000/svg" width="48" height="48" version="1">
 <path d="m 17.033203,5.0048256 c -1.41504,0.033333 -2.581905,0.226118 -3.703125,0.609375 -0.7002,0.2393471 -1.455585,0.5909934 -1.791016,0.8339844 -0.24622,0.178354 -0.449218,0.5858517 -0.449218,0.9003906 0,0.1654011 0.07857,0.4388206 0.167968,0.5859376 0.03698,0.060866 0.258861,0.3250904 0.494141,0.5859374 0.23529,0.2608481 0.513751,0.5735835 0.619141,0.6953126 C 14.317854,11.46421 14.89526,13.581563 15,16.204044 c -0.133765,1.356729 -0.665132,2.703905 -1.738281,3.957031 -2.25401,2.91925 -2.996968,4.129963 -3.7050784,6.033203 -0.27955,0.75137 -0.4331375,1.389386 -0.5234375,2.166016 -0.0443,0.37831 -0.043047,1.686589 0.00195,2.318359 0.1403501,1.97011 0.5164618,3.759068 1.1699218,5.554688 0.07278,0.19998 0.179881,0.497266 0.238281,0.660156 0.59268,1.65134 1.921658,3.900594 3.242188,5.490234 0.31727,0.38192 1.213744,1.30014 1.677734,1.71875 0.55645,0.50203 1.147005,0.81996 1.640625,0.88086 l 0,-0.002 c 0.11122,0.0136 2.899743,0.02158 6.195313,0.01758 l 5.990234,-0.0059 0.222656,-0.06641 c 0.48227,-0.14551 1.104697,-0.534297 1.597657,-0.998047 0.12674,-0.11923 0.43579,-0.444416 0.6875,-0.722656 1.63404,-1.8063 3.89858,-4.463025 4.78125,-6.671875 0.82422,-2.06257 1.207215,-3.465817 1.421875,-5.216797 0.25272,-2.06148 0.138239,-3.45145 -0.400391,-4.83789 -0.418612,-0.968809 -1.510197,-1.993439 -1.529297,-3.113282 2e-4,-0.44125 0.01149,-0.599147 0.05859,-0.773437 0.12569,-0.46493 0.551256,-0.890083 0.878906,-1.283203 0.07971,-0.09565 0.466475,-0.500431 0.859375,-0.900391 0.93452,-0.95131 1.234903,-1.340623 1.595703,-2.064453 0.29103,-0.58384 0.502663,-1.27715 0.601563,-1.972656 0.0626,-0.437414 0.06195,-1.268563 -0.002,-1.712891 C 39.596511,12.112687 37.745524,9.8252767 35.308594,9.2079506 34.621244,9.0338256 34.011676,9.0246563 31.910156,8.9989663 29.018464,8.961416 25.771176,8.6169266 23.025391,6.87006 21.289701,5.94451 20.686971,5.6645678 19.863281,5.3974038 18.866521,5.0741088 18.178673,4.9778456 17.033203,5.0048256 Z m 15.246094,7.9960934 c 0.735127,6.9e-4 1.089498,0.01154 1.255859,0.03906 0.871052,0.144105 1.606876,0.623813 2.054688,1.341797 0.409509,0.656587 0.516449,1.42632 0.300781,2.148438 -0.173264,0.580158 -0.363907,0.837494 -1.224609,1.650391 -0.879963,0.83111 -1.188698,1.174031 -1.498047,1.660156 -0.05587,0.08787 -0.118312,0.160156 -0.138672,0.160156 -0.02033,0 -0.09474,-0.07229 -0.164063,-0.160156 l -0.279296,-0.353516 c -0.738736,-0.935258 -1.294303,-1.785543 -1.46875,-2.25 -0.07056,-0.187768 -0.08568,-0.290488 -0.105469,-0.654297 -0.05191,-0.953125 0.09305,-3.317376 0.216797,-3.535156 0.02549,-0.04495 0.105014,-0.04775 1.050781,-0.04687 z" style="opacity:0.2"/>
 <path style="fill:#cccccc" d="M 17.033203 4.0039062 C 15.618163 4.0372392 14.451298 4.2300242 13.330078 4.6132812 C 12.629878 4.8526283 11.874493 5.2042746 11.539062 5.4472656 C 11.292842 5.6256196 11.089844 6.0331173 11.089844 6.3476562 C 11.089844 6.5130573 11.168413 6.7864768 11.257812 6.9335938 C 11.294793 6.9944598 11.516673 7.2586842 11.751953 7.5195312 C 11.987243 7.7803793 12.265704 8.0931147 12.371094 8.2148438 C 14.317854 10.463291 14.89526 12.580644 15 15.203125 C 14.866235 16.559854 14.334868 17.90703 13.261719 19.160156 C 11.007709 22.079406 10.264751 23.290119 9.5566406 25.193359 C 9.2770906 25.944729 9.1235031 26.582745 9.0332031 27.359375 C 8.9889031 27.737685 8.9901563 29.045964 9.0351562 29.677734 C 9.1755063 31.647844 9.551618 33.436802 10.205078 35.232422 C 10.277858 35.432402 10.384959 35.729688 10.443359 35.892578 C 11.036039 37.543918 12.365017 39.793172 13.685547 41.382812 C 14.002817 41.764732 14.899291 42.682952 15.363281 43.101562 C 15.919731 43.603592 16.510286 43.921522 17.003906 43.982422 L 17.003906 43.980469 C 17.115126 43.994069 19.903649 44.002047 23.199219 43.998047 L 29.189453 43.992188 L 29.412109 43.925781 C 29.894379 43.780271 30.516806 43.391484 31.009766 42.927734 C 31.136506 42.808504 31.445556 42.483318 31.697266 42.205078 C 33.331306 40.398778 35.595846 37.742053 36.478516 35.533203 C 37.302736 33.470633 37.685731 32.067386 37.900391 30.316406 C 38.153111 28.254926 38.03863 26.864956 37.5 25.478516 C 37.081388 24.509707 35.989803 23.485077 35.970703 22.365234 C 35.970903 21.923984 35.982197 21.766087 36.029297 21.591797 C 36.154987 21.126867 36.580553 20.701714 36.908203 20.308594 C 36.987913 20.212944 37.374678 19.808163 37.767578 19.408203 C 38.702098 18.456893 39.002481 18.06758 39.363281 17.34375 C 39.654311 16.75991 39.865944 16.0666 39.964844 15.371094 C 40.027444 14.93368 40.026791 14.102531 39.962891 13.658203 C 39.596511 11.111768 37.745524 8.8243573 35.308594 8.2070312 C 34.621244 8.0329062 34.011676 8.0237369 31.910156 7.9980469 C 29.018464 7.9604966 25.771176 7.6160072 23.025391 5.8691406 C 21.289701 4.9435906 20.686971 4.6636484 19.863281 4.3964844 C 18.866521 4.0731894 18.178673 3.9769262 17.033203 4.0039062 z M 32.279297 12 C 33.014424 12.00069 33.368795 12.011542 33.535156 12.039062 C 34.406208 12.183167 35.142032 12.662875 35.589844 13.380859 C 35.999353 14.037446 36.106293 14.807179 35.890625 15.529297 C 35.717361 16.109455 35.526718 16.366791 34.666016 17.179688 C 33.786053 18.010798 33.477318 18.353719 33.167969 18.839844 C 33.112095 18.927714 33.049657 19 33.029297 19 C 33.008966 19 32.934554 18.927714 32.865234 18.839844 L 32.585938 18.486328 C 31.847202 17.55107 31.291635 16.700785 31.117188 16.236328 C 31.046628 16.04856 31.031509 15.94584 31.011719 15.582031 C 30.959807 14.628906 31.104768 12.264655 31.228516 12.046875 C 31.254007 12.001925 31.33353 11.999121 32.279297 12 z"/>
 <path style="fill:#ffffff;opacity:0.2" d="M 17.033203 4.0039062 C 15.618163 4.0372392 14.451298 4.2300242 13.330078 4.6132812 C 12.629878 4.8526283 11.874493 5.2042746 11.539062 5.4472656 C 11.292843 5.6256196 11.089844 6.0331173 11.089844 6.3476562 C 11.089844 6.4881503 11.150795 6.6948957 11.222656 6.8476562 C 11.304183 6.6841702 11.415952 6.5364426 11.539062 6.4472656 C 11.874494 6.2042746 12.629878 5.8526283 13.330078 5.6132812 C 14.451298 5.2300242 15.618163 5.0372392 17.033203 5.0039062 C 18.178673 4.9769262 18.866521 5.0731894 19.863281 5.3964844 C 20.686971 5.6636484 21.289701 5.9435906 23.025391 6.8691406 C 25.771176 8.6160072 29.018464 8.9604966 31.910156 8.9980469 C 34.011676 9.0237369 34.621244 9.0329062 35.308594 9.2070312 C 37.745524 9.8243573 39.596565 12.111857 39.962891 14.658203 C 39.976554 14.753137 39.97649 14.902754 39.984375 15.025391 C 40.013864 14.574914 40.013849 14.012539 39.962891 13.658203 C 39.596511 11.111768 37.745524 8.8243574 35.308594 8.2070312 C 34.621244 8.0329062 34.011676 8.0237369 31.910156 7.9980469 C 29.018464 7.9604966 25.771176 7.6160072 23.025391 5.8691406 C 21.289701 4.9435906 20.686971 4.6636484 19.863281 4.3964844 C 18.866521 4.0731894 18.178673 3.9769262 17.033203 4.0039062 z M 35.9375 15.279297 C 35.921274 15.362565 35.915196 15.447027 35.890625 15.529297 C 35.717361 16.109455 35.526718 16.366791 34.666016 17.179688 C 33.786053 18.010798 33.477318 18.353719 33.167969 18.839844 C 33.112095 18.927714 33.049657 19 33.029297 19 C 33.008966 19 32.934554 18.927714 32.865234 18.839844 L 32.585938 18.486328 C 31.847202 17.55107 31.291634 16.700785 31.117188 16.236328 C 31.046627 16.04856 31.031509 15.94584 31.011719 15.582031 C 31.011005 15.568934 31.012358 15.544871 31.011719 15.53125 C 31.000363 15.938514 30.997269 16.316717 31.011719 16.582031 C 31.031508 16.94584 31.046627 17.04856 31.117188 17.236328 C 31.291634 17.700785 31.847202 18.55107 32.585938 19.486328 L 32.865234 19.839844 C 32.934557 19.92771 33.008967 20 33.029297 20 C 33.049657 20 33.112099 19.927714 33.167969 19.839844 C 33.477318 19.353719 33.786053 19.010797 34.666016 18.179688 C 35.526718 17.366791 35.717361 17.109455 35.890625 16.529297 C 36.013673 16.117296 36.020762 15.69244 35.9375 15.279297 z M 14.953125 15.474609 C 14.778052 16.738993 14.263047 17.990896 13.261719 19.160156 C 11.007709 22.079406 10.264751 23.290119 9.5566406 25.193359 C 9.2770906 25.944729 9.1235031 26.582745 9.0332031 27.359375 C 9.0017373 27.628085 9.001774 28.319782 9.015625 28.951172 C 9.0209384 28.736806 9.0208891 28.464533 9.0332031 28.359375 C 9.1235031 27.582745 9.2770906 26.944729 9.5566406 26.193359 C 10.264751 24.290119 11.007709 23.079406 13.261719 20.160156 C 14.334868 18.90703 14.866235 17.559854 15 16.203125 C 14.990075 15.954614 14.972302 15.71459 14.953125 15.474609 z M 36.013672 22.689453 C 35.98409 22.83668 35.970869 22.998988 35.970703 23.365234 C 35.989803 24.485077 37.081388 25.509707 37.5 26.478516 C 37.815682 27.291086 37.968145 28.122795 38.003906 29.072266 C 38.074525 27.663142 37.92145 26.563332 37.5 25.478516 C 37.122174 24.604099 36.204581 23.68378 36.013672 22.689453 z"/>
 <path d="m 28.602996,37.810538 c -1.974776,-1.140137 -8.284732,-8.35884 -8.284732,-8.35884 0,0 9.406558,1.855233 11.381332,2.99537 1.974777,1.140135 2.543448,3.852223 2.027348,4.746136 -0.5161,0.893912 -3.149173,1.757472 -5.123948,0.617334 z" style="opacity:0.2"/>
 <path style="fill:#4670c8" d="m 28.602996,36.810538 c -1.974776,-1.140137 -8.284732,-8.35884 -8.284732,-8.35884 0,0 9.406558,1.855233 11.381332,2.99537 1.974777,1.140135 2.543448,3.852223 2.027348,4.746136 -0.5161,0.893912 -3.149173,1.757472 -5.123948,0.617334 z"/>
 <path style="opacity:0.2" d="m 31.777695,31.853862 c -2.202576,0.590178 -11.768782,-0.05241 -11.768782,-0.05241 0,0 7.963285,-5.339596 10.165861,-5.929774 2.202576,-0.590177 4.522425,0.925447 4.789577,1.922474 0.267153,0.99703 -0.984083,3.469523 -3.186656,4.059703 z"/>
 <path d="m 31.777695,30.853862 c -2.202576,0.590178 -11.768782,-0.05241 -11.768782,-0.05241 0,0 7.963285,-5.339596 10.165861,-5.929774 2.202576,-0.590177 4.522425,0.925447 4.789577,1.922474 0.267153,0.99703 -0.984083,3.469523 -3.186656,4.059703 z" style="fill:#4ab6e7"/>
 <path style="opacity:0.2" d="m 29.810539,25.397005 c -1.140137,1.974777 -8.35884,8.28473 -8.35884,8.28473 0,0 1.85523,-9.406556 2.995368,-11.381332 1.140137,-1.974775 3.852225,-2.543446 4.746137,-2.027346 0.893911,0.516098 1.757472,3.149171 0.617335,5.123948 z"/>
 <path d="m 29.810539,24.397005 c -1.140137,1.974777 -8.35884,8.28473 -8.35884,8.28473 0,0 1.85523,-9.406556 2.995368,-11.381332 1.140137,-1.974775 3.852225,-2.543446 4.746137,-2.027346 0.893911,0.516098 1.757472,3.149171 0.617335,5.123948 z" style="fill:#4670c8"/>
 <path style="opacity:0.2" d="m 14.300404,29.552932 c 1.974776,1.140138 11.381332,2.995368 11.381332,2.995368 0,0 -6.309955,-7.2187 -8.284731,-8.358838 -1.974776,-1.140137 -4.607848,-0.276578 -5.123948,0.617335 -0.516101,0.893913 0.05257,3.605998 2.027347,4.746135 z"/>
 <path d="m 14.300404,28.552932 c 1.974776,1.140138 11.381332,2.995368 11.381332,2.995368 0,0 -6.309955,-7.2187 -8.284731,-8.358838 -1.974776,-1.140137 -4.607848,-0.276578 -5.123948,0.617335 -0.516101,0.893913 0.05257,3.605998 2.027347,4.746135 z" style="fill:#4670c8"/>
 <path d="m 17.871687,23.825225 c 0.590178,2.202576 5.929773,10.165864 5.929773,10.165864 0,0 0.642583,-9.566209 0.05241,-11.768782 -0.59018,-2.202576 -3.062673,-3.453812 -4.059701,-3.186659 -0.99703,0.267155 -2.512654,2.587001 -1.922476,4.789577 z" style="opacity:0.2"/>
 <path d="m 15.825225,36.128313 c 2.202578,-0.590178 10.165864,-5.929774 10.165864,-5.929774 0,0 -9.566206,-0.642583 -11.768782,-0.05241 -2.202577,0.59018 -3.453812,3.062673 -3.186658,4.059701 0.267153,0.997032 2.587001,2.512654 4.789576,1.922476 z" style="opacity:0.2"/>
 <path style="fill:#4ab6e7" d="m 15.825225,35.128313 c 2.202578,-0.590178 10.165864,-5.929774 10.165864,-5.929774 0,0 -9.566206,-0.642583 -11.768782,-0.05241 -2.202577,0.59018 -3.453812,3.062673 -3.186658,4.059701 0.267153,0.997032 2.587001,2.512654 4.789576,1.922476 z"/>
 <path style="opacity:0.2" d="m 22.146139,39.777694 c -0.59018,-2.202578 0.05241,-11.768784 0.05241,-11.768784 0,0 5.339594,7.963287 5.929772,10.165863 0.590177,2.202578 -0.925447,4.522425 -1.922474,4.789577 -0.99703,0.267155 -3.469523,-0.984082 -4.059701,-3.186656 z"/>
 <path d="m 22.146139,38.777694 c -0.59018,-2.202578 0.05241,-11.768784 0.05241,-11.768784 0,0 5.339594,7.963287 5.929772,10.165863 0.590177,2.202578 -0.925447,4.522425 -1.922474,4.789577 -0.99703,0.267155 -3.469523,-0.984082 -4.059701,-3.186656 z" style="fill:#4ab6e7"/>
 <path d="m 21.552933,39.699598 c 1.140138,-1.974777 2.995368,-11.381333 2.995368,-11.381333 0,0 -7.218702,6.309954 -8.358839,8.284731 -1.140138,1.974774 -0.276578,4.607847 0.617335,5.123947 0.89391,0.516101 3.605999,-0.05258 4.746136,-2.027345 z" style="opacity:0.2"/>
 <path style="fill:#4670c8" d="m 21.552933,38.699598 c 1.140138,-1.974777 2.995368,-11.381333 2.995368,-11.381333 0,0 -7.218702,6.309954 -8.358839,8.284731 -1.140138,1.974774 -0.276578,4.607847 0.617335,5.123947 0.89391,0.516101 3.605999,-0.05258 4.746136,-2.027345 z"/>
 <path style="fill:#4ab6e7" d="m 17.871687,22.825225 c 0.590178,2.202576 5.929773,10.165864 5.929773,10.165864 0,0 0.642583,-9.566209 0.05241,-11.768782 -0.59018,-2.202576 -3.062673,-3.453812 -4.059701,-3.186659 -0.99703,0.267155 -2.512654,2.587001 -1.922476,4.789577 z"/>
 <circle style="opacity:0.2" cx="35.419" cy="15.347" r="4" transform="matrix(0.86602541,0.5,-0.5,0.86602541,0,0)"/>
 <circle cx="34.919" cy="14.481" r="4" transform="matrix(0.86602541,0.5,-0.5,0.86602541,0,0)" style="fill:#ffb22e"/>
 <path style="opacity:0.2;fill:#ffffff" d="M 22.810547 26.003906 A 4 4 0 0 0 19.535156 28 A 4 4 0 0 0 19.035156 30.505859 A 4 4 0 0 1 19.535156 29 A 4 4 0 0 1 25 27.535156 A 4 4 0 0 1 26.964844 30.494141 A 4 4 0 0 0 25 26.535156 A 4 4 0 0 0 22.810547 26.003906 z"/>
</svg>
